X:1036
T:McLachlan's Strathspey.
M:C
L:1/8
Q:1/4=120
I: :: ||
Z:Jack Campin * www.campin.me.uk * 2009
K:D
G|F>A``````A<d A/A/A d2 |d>ef>d e2 E2 |FA`Aa  f>ae>f|d>BA>F D/D/D D:|
G|A/G/F/E/ D>F A>B```d>A|B>dF>d e2 e>f|a>fd>a b>fa>e|f>da>f d/d/d da|
  b>f``````a>e f>d```a>f|gb`af  e2 E2 |F(AA)a f>ae>f|d>BA>F D/D/D D|]

